X: 99
T: The Longford Collector
M: C|
L: 1/8
R: reel
K:Gmaj
"G"G3A Bcdg|"Em"e~B3 eBdB|"G"~G3A B2dB|"D7(Am7)"AcBA "G"GEDE|
"G"~G3A Bcdg|"Em"e~B3 "D"d2ef|"G"~g3f gedB|"D7"AcBA "G"GEDE:|
|:"G"~g3f gedg|"Em"e~B3 "D"d2ef|"G"~g2gf gedB|"D7(Am7)"AcBA "G"GEED|
"G"~g3f gedg|"Em"e~B3 "D"d2ef|"G"gbaf gedB|"D7"AcBA "G"GEED:|


